X:1
T:Title
%%score 1 ( 2 3 )
L:1/8
Q:1/4=85
M:6/8
K:Bb
V:1 treble nm="Grand Piano, Soprano"
V:2 bass nm="Choir Pad, Bass"
V:3 bass 
V:1
 F[DB]>[DB] [DB][DB][Fd] | [Ec][DB]>[FA] [EG] [DF]2 | [DF][DB]>[Ec] [Fd] [Fe]2 | %3
w: By~Finley~Lyon * * * * *|||
 [Fd] [Fc]2- [Fc]2- [Fc]/ z/ | [EF][DB]>[DB] [DB][DB][Fd] | [Ec][DB]>[Ec] [Fd] [Ge]2 | %6
w: |||
 [EG][DF]>[DF] [DF] [FB]2 | [EA] [DB]2- [DB]2- [DB]/ z/ | z cc- c/c/cA | F c2- c3- | %10
w: ||||
 c[Fc][Fc]- [Fc]/[Fc]/[Fc][FA] | F [Fd]2- [Fd]2- [Fd]/ z/ | [DF] [DB]2 [DB][DB][DF] | %13
w: |||
 [D_A] [EG]2- [EG]2- [EG]/ z/ | [Ge][Fd]>[Fc] [FB] [FA]2 | [Ec] [DB]2- [DB]3- | [DB]3 z3 |] %17
w: ||||
V:2
 F,[B,,F,]>[B,,F,] [B,,F,][B,,F,][B,,B,] | [B,,B,][B,,B,]>[B,,B,] [B,,B,] [B,,B,]2 | %2
 [B,,B,][K:treble]D>D D [CE]2 | D[K:bass] [F,A,]2- [F,A,]2- [F,A,]/ z/ | %4
 [F,A,][B,,B,]>[B,,B,] [B,,B,][B,,B,][B,,F,] | [B,,A,][B,,B,]>[B,,B,] [B,,B,] [E,B,]2 | %6
 [E,B,][F,B,]>[F,B,] [F,B,] [F,D]2 | [F,C] [B,,B,]2- [B,,B,]2- [B,,B,]/ z/ | %8
 z[K:treble] CC- C/C/C[K:bass]A, | F, C2- C3- | C[F,A,][F,A,]- [F,A,]/[F,A,]/[F,A,][F,A,] | %11
 [F,A,]B,-[D,B,-] [F,B,] B,2 | [B,,B,] [B,,B,]2 [B,,B,][B,,B,][B,,B,] | %13
 [B,,B,] [E,B,]2- [E,B,]2- [E,B,]/ z/ | [E,B,][F,B,]>[F,C] [F,D] [F,E]2 | %15
 [F,A,] [B,,B,]2- [B,,B,]3- | [B,,B,]3 z3 |] %17
V:3
 x6 | x6 | x[K:treble] x5 | x[K:bass] x5 | x6 | x6 | x6 | x6 | x[K:treble] x4[K:bass] x | x6 | x6 | %11
 z .B,,2 z3 | x6 | x6 | x6 | x6 | x6 |] %17

